!!!!SEGMENT: pl-gd--ee-1638--002-001_marenzio-luca--motettorum-pro-festis-totius-anni-in-festo-nativitatis-domini-hodie-christus-natus-est.krn
!!!cenid: 15xx:1004
!!!COM: Marenzio, Luca
!!!COM-rismID: pe30003955
!!!CDT: ~1553-1599/08/22
!!!CNT: Italian
!!!GTL: Motettorum pro festis totius anni
!!!OTL: In Festo Nativitatis Domini/Hodie Christus natus est
!!!OMV: 001
!!!PDT: 1588
!!!AGN:
!!!SMS-siglum: PL-GD
!!!SMS-shelfmark: Ee 1638
!!!SMS-shelfwork: 002-001 G
!!!SMS-variant:
!!!SMS-altvar:
!!!NIFC-rismSourceID: 990039238
!!!NIFC-islandoraID: pl-gd:57883
!!!URL-pdf-islandora: https://repozytorium.nifc.pl/islandora/object/pl-gd%3A57883/datastream/PDF/view
!!!URL-scan: https://polish.musicsources.pl/pl/lokalizacje/galeria/klocki-introligatorskie/655 @EN{Scan on Polish Music Sources Website} @PL{Skany w portalu Dziedzictwo Muzyki Polskiej w otwartym dostępie}
!!!ONB-nifc: UWAGA: Cantus: s. 616, Altus: s. 464, Tenor: s. 312, Bassus: s. 160
!!!AIN: 1 alto 1 bass 1 soprn 1 tenor
!!!key:
**kern	**text	**kern	**text	**kern	**text	**kern	**text
*part4	*part4	*part3	*part3	*part2	*part2	*part1	*part1
*staff4	*staff4	*staff3	*staff3	*staff2	*staff2	*staff1	*staff1
*I"BASSO	*	*I"TENORE	*	*I"ALTO	*	*I"CANTO	*
*I'B.	*	*I'T.	*	*I'A.	*	*I'C.	*
*Ibass	*	*Itenor	*	*Ialto	*	*Isoprn	*
*ICvox	*	*ICvox	*	*ICvox	*	*ICvox	*
*IG	*	*	*	*	*	*	*
*clefF3	*	*clefC3	*	*clefC2	*	*clefG2	*
*k[]	*	*k[]	*	*k[]	*	*k[]	*
*C:	*	*C:	*	*C:	*	*C:	*
*M2/1	*	*M2/1	*	*M2/1	*	*M2/1	*
*met(C|)	*	*met(C|)	*	*met(C|)	*	*met(C|)	*
=1-	=1-	=1-	=1-	=1-	=1-	=1-	=1-
!LO:TX:a:i:t=In Feſto Natiuitatis Domini	!	!LO:TX:a:i:t=In Feſto Natiuitatis Domini	!	!LO:TX:a:i:t=In Feſto Natiuitatis Domini	!	!LO:TX:a:i:t=In Feſto Natiuitatis Domini	!
1.c	HO-	1.e	HO-	1.g	HO-	1.cc	HO-
2F/	-di-	2f\	-di-	2a\	-di-	2cc\	-di-
=2-	=2-	=2-	=2-	=2-	=2-	=2-	=2-
1A	-e	1e	-e	2a\	-e	1cc	-e
.	.	.	.	1cc	Chri-	.	.
1.G	Chri-	1.g	Chri-	.	.	2.dd\	Chri-
.	.	.	.	4b\	.	.	.
.	.	.	.	4a\	.	4cc\	.
=3-	=3-	=3-	=3-	=3-	=3-	=3-	=3-
.	.	.	.	1b	.	2dd\	.
2E/	-ſtus	2g\	-ſtus	.	.	1ee	-ſtus
2.A\	na-	2c/	na-	2e/	-ſtus	.	.
.	.	2e\	-tus	1a\	na-	1cc\	na
4G\	.	.	.	.	.	.	.
=4-	=4-	=4-	=4-	=4-	=4-	=4-	=4-
2F/	.	0d	eſt	.	.	.	.
2G\	-tus	.	.	1g	-tus	2b/	tus
1D	eſt	.	.	.	.	0a	eſt
.	.	.	.	4f#X\	.	.	.
.	.	.	.	4e\	.	.	.
=5-	=5-	=5-	=5-	=5-	=5-	=5-	=5-
!	!	!	!	!LO:SIC:v:t=custos d	!	!	!
2r	.	2r	.	1f#X	eſt	.	.
!	!	!	!	!LO:LB:g=original	!	!	!
2d\	No-	2d\	No-	.	.	.	.
2c\	-e	2.e\	-e	1r	.	1r	.
2G\	no-	.	.	.	.	.	.
.	.	4g\	no-	.	.	.	.
=6-	=6-	=6-	=6-	=6-	=6-	=6-	=6-
!	!	!LO:SIC:v:t=custos g	!	!	!	!	!
2A\	-e	2f#X\	-e	2r	.	2r	.
!	!	!LO:LB:g=original	!	!	!	!LO:SIC:v:t=custos cc	!
2B\	no-	2g\	no-	2d/	No-	2dd\	No-
!	!	!	!	!	!	!LO:LB:g=original	!
1c	-e	1g	-e	2.e/	-e	2cc\	-e
.	.	.	.	.	.	2g/	no-
.	.	.	.	4g\	no-	.	.
=7-	=7-	=7-	=7-	=7-	=7-	=7-	=7-
2r	.	2r	.	2f#X\	-e	2a/	-e
*	*	*	*ij	*	*	*	*
2G\	No-	2g\	no-	2g\	no-	2b/	no-
2.A\	-e	2fny\	-e	1c	-e	1cc	-e
.	.	2c/	no-	.	.	.	.
*	*ij	*	*	*	*	*	*
4c\	no-	.	.	.	.	.	.
=8-	=8-	=8-	=8-	=8-	=8-	=8-	=8-
2B\	-e	2d\	-e	1r	.	2r	.
!LO:SIC:v:t=custos F	!	!	!	!	!	!	!
2c\	no-	2e\	no-	.	.	1cc	ho-
!LO:LB:g=original	!	!	!	!	!	!	!
0F	-e	0f	-e	2r	.	.	.
*	*Xij	*	*Xij	*	*	*	*
.	.	.	.	1a\	ho-	2cc\	-di-
=9-	=9-	=9-	=9-	=9-	=9-	=9-	=9-
.	.	.	.	.	.	0cc	-e
.	.	.	.	2a\	-di-	.	.
1.A	ho-	1r	.	1e	-a	.	.
=10-	=10-	=10-	=10-	=10-	=10-	=10-	=10-
.	.	1.e	ho-	1.a	ho-	1.cc	ho-
2A\	-di-	.	.	.	.	.	.
1A	-e	.	.	.	.	.	.
!	!	!	!	!LO:SIC:v:t=custos g#	!	!	!
.	.	2e\	-di-	2a\	-di-	2cc\	-di-
!	!	!	!	!LO:LB:g=original	!	!	!
=11-	=11-	=11-	=11-	=11-	=11-	=11-	=11-
2r	.	0e	-e	2g#X\	-e	2b/	-e
2E/	Sal-	.	.	2g#\	Sal-	2b/	Sal-
!	!	!	!	!	!	!LO:SIC:v:t=custos dd	!
1A	-ua-	.	.	1a	-ua-	1cc	-ua-
!	!	!	!	!	!	!LO:LB:g=original	!
=12-	=12-	=12-	=12-	=12-	=12-	=12-	=12-
2G\	-tor	2r	.	2.b\	-tor	2dd\	-tor
!	!	!LO:SIC:v:t=custos e	!	!	!	!	!
2G\	ap-	2B/	Sal-	.	.	2dd\	ap-
!	!	!LO:LB:g=original	!	!	!	!	!
.	.	.	.	4a\	.	.	.
4C/	-pa-	1e	-ua-	1gny	.	2cc\	-pa-
4D/	.	.	.	.	.	.	.
4E/	.	.	.	.	.	2cc\	-ru-
4F/	.	.	.	.	.	.	.
=13-	=13-	=13-	=13-	=13-	=13-	=13-	=13-
2.G\	.	2d\	-tor	2r	.	0b	-it
.	.	2d\	ap-	2d/	Sal-	.	.
4F/	.	.	.	.	.	.	.
2E/	.	4G/	-pa-	1g	-ua-	.	.
.	.	4A/	.	.	.	.	.
2E/	-ru-	4B/	.	.	.	.	.
.	.	4c/	.	.	.	.	.
=14-	=14-	=14-	=14-	=14-	=14-	=14-	=14-
1D	-it	2.d\	.	2fny\	-tor	2r	.
.	.	.	.	2f\	ap-	2a/	Sal-
.	.	4c/	.	.	.	.	.
1r	.	2B-X/	.	4d/	-pa-	1dd	-ua-
.	.	.	.	4e/	.	.	.
.	.	2B-/	-ru-	4f\	.	.	.
.	.	.	.	4g\	.	.	.
=15-	=15-	=15-	=15-	=15-	=15-	=15-	=15-
2r	.	1A	-it	4a\	.	2cc\	-tor
.	.	.	.	4e/	.	.	.
2A\	Sal-	.	.	2.a\	.	2cc\	ap-
1d	-ua-	2r	.	.	.	4f/	-pa-
.	.	.	.	4g\	.	4g/	.
*	*	*	*ij	*	*	*	*
.	.	2d\	Sal-	2.f\	.	4a/	.
.	.	.	.	.	.	4b\	.
=16-	=16-	=16-	=16-	=16-	=16-	=16-	=16-
2c\	-tor	1g	-ua-	.	.	2.cc\	.
.	.	.	.	8e/	.	.	.
!	!	!	!	!LO:SIC:v:t=custos e	!	!	!
.	.	.	.	8d/	.	.	.
!	!	!	!	!LO:LB:g=original	!	!	!
2c\	ap-	.	.	4e/	.	.	.
.	.	.	.	4d/	.	4b/	.
4F\	-pa-	2f\	-tor	4c/	.	2a/	.
4G\	.	.	.	4B/	.	.	.
4A\	.	2f\	ap-	4c/	.	2a/	-ru-
4B\	.	.	.	4d/	.	.	.
=17-	=17-	=17-	=17-	=17-	=17-	=17-	=17-
2.c\	.	2.e\	-pa-	4e/	.	1g	-it
.	.	.	.	4f\	.	.	.
.	.	.	.	2.g\	.	.	.
4B\	.	4d\	.	.	.	.	.
!	!	!LO:SIC:v:t=custos c	!	!	!	!	!
2A\	.	2c/	.	.	.	2r	.
!	!	!LO:LB:g=original	!	!	!	!	!
.	.	.	.	8f#X\	.	.	.
.	.	.	.	8e\	.	.	.
!	!	!	!	!	!	!LO:SIC:v:t=custos b	!
2A\	-ru-	2c/	-ru-	2f#X\	-ru-	2a/	Al-
!	!	!	!	!	!	!LO:LB:g=original	!
=18-	=18-	=18-	=18-	=18-	=18-	=18-	=18-
1G	-it	2d\	-it	1g	-it	4b\	-le-
*	*	*	*Xij	*	*	*	*
.	.	.	.	.	.	4cc\	.
.	.	2g\	Al-	.	.	4dd\	.
.	.	.	.	.	.	4b\	.
2r	.	4f\	-le-	1r	.	2cc\	.
.	.	4e\	.	.	.	.	.
!LO:SIC:v:t=custos E	!	!	!	!	!	!	!
2D/	Al-	4d\	.	.	.	2dd\	-lu-
!LO:LB:g=original	!	!	!	!	!	!	!
.	.	4f\	.	.	.	.	.
=19-	=19-	=19-	=19-	=19-	=19-	=19-	=19-
4E/	-le-	1e	.	1r	.	2g/	-ia
4F/	.	.	.	.	.	.	.
*	*	*	*	*	*	*	*ij
4G\	.	.	.	.	.	2g/	Al-
4E/	.	.	.	.	.	.	.
2F/	.	1d	-lu-	2r	.	2a/	-le-
2G\	-lu-	.	.	2d/	Al-	2b/	-lu-
=20-	=20-	=20-	=20-	=20-	=20-	=20-	=20-
1C	-ia	1c	-ia	4e\	-le-	2cc\	-ia
*	*	*	*	*	*	*	*Xij
.	.	.	.	4fny\	.	.	.
.	.	.	.	4g\	.	2ee\	Al-
.	.	.	.	4e/	.	.	.
!	!	!	!	!LO:SIC:v:t=custos g	!	!	!
2r	.	1r	.	2f\	.	4dd\	-le-
!	!	!	!	!LO:LB:g=original	!	!	!
.	.	.	.	.	.	4cc\	.
*	*ij	*	*	*	*	*	*
2G\	Al-	.	.	2g\	-lu-	4b\	.
.	.	.	.	.	.	4dd\	.
=21-	=21-	=21-	=21-	=21-	=21-	=21-	=21-
4A\	-le-	2r	.	1c	-ia	4cc\	.
4B\	.	.	.	.	.	4dd\	.
*	*	*	*ij	*	*	*	*
4c\	.	2a\	Al-	.	.	4ee\	.
!	!	!	!	!	!	!LO:SIC:v:t=custos dd	!
4A\	.	.	.	.	.	4cc\	.
!	!	!	!	!	!	!LO:LB:g=original	!
2B\	.	4g\	-le-	2r	.	2dd\	.
.	.	4f\	.	.	.	.	.
*	*	*	*	*	*ij	*	*
2c\	-lu-	4e\	.	2g\	Al-	2ee\	-lu-
.	.	4g\	.	.	.	.	.
=22-	=22-	=22-	=22-	=22-	=22-	=22-	=22-
2F/	-ia	4f\	.	4a\	-le-	1cc	-ia
.	.	8e\	.	4b\	.	.	.
.	.	8d\	.	.	.	.	.
2A\	Al-	2c/	.	4cc\	.	.	.
.	.	.	.	4a\	.	.	.
!	!	!LO:SIC:v:t=custos e	!	!	!	!	!
4G\	-le-	2d\	-lu-	2b\	.	2r	.
!	!	!LO:LB:g=original	!	!	!	!	!
4F/	.	.	.	.	.	.	.
4E/	.	2e\	.	2b\	-lu-	2g/	Al-
4G\	.	.	.	.	.	.	.
=23-	=23-	=23-	=23-	=23-	=23-	=23-	=23-
1F	.	1A	-ia	2cc\	-ia	4a/	-le-
.	.	.	.	.	.	4b/	.
.	.	.	.	2a\	Al-	4cc\	.
.	.	.	.	.	.	4a/	.
1E	-lu-	2r	.	4g\	-le-	2b/	.
.	.	.	.	4f\	.	.	.
.	.	2G/	Al-	4e\	.	2cc#X\	-lu-
.	.	.	.	4g\	.	.	.
=24-	=24-	=24-	=24-	=24-	=24-	=24-	=24-
0D	-ia	2A/	-le-	2f#X\	.	0dd	-ia
*	*Xij	*	*	*	*	*	*
.	.	2B-X/	-lu-	2.g\	-lu-	.	.
.	.	1A	-ia	.	.	.	.
*	*	*	*Xij	*	*	*	*
.	.	.	.	8f#\	.	.	.
.	.	.	.	8e\	.	.	.
!	!	!	!	!LO:SIC:v:t=custos g	!	!	!
.	.	.	.	2f#X\	.	.	.
!	!	!	!	!LO:LB:g=original	!	!	!
=25-	=25-	=25-	=25-	=25-	=25-	=25-	=25-
0r	.	2.G/	ho-	0g	-ia	2.b/	ho-
*	*	*	*	*	*Xij	*	*
.	.	4A/	.	.	.	4ccny\	.
.	.	2Bny/	.	.	.	2dd\	.
.	.	2c/	-di-	.	.	2ee\	-di-
=26-	=26-	=26-	=26-	=26-	=26-	=26-	=26-
2.G\	ho-	1d	-e	1r	.	1b	-e
4A\	.	.	.	.	.	.	.
2B\	.	1r	.	2.g\	ho-	1r	.
2c\	-di-	.	.	.	.	.	.
.	.	.	.	4a\	.	.	.
=27-	=27-	=27-	=27-	=27-	=27-	=27-	=27-
2G\	-e	2.g\	ho-	2b\	.	2r	.
2c\	in	.	.	2cc\	-di-	2ee\	in
.	.	4f\	.	.	.	.	.
!	!	!	!	!	!	!LO:SIC:v:t=custos dd	!
2c\	ter-	2e\	.	2.g\	-e	2cc\	ter-
!	!	!	!	!	!	!LO:LB:g=original	!
2B\	-ra	2d\	-di-	.	.	2dd\	-ra
.	.	.	.	4fny\	.	.	.
=28-	=28-	=28-	=28-	=28-	=28-	=28-	=28-
4c\	ca-	1g	-e	0e	.	4ee\	ca-
!LO:SIC:v:t=custos e	!	!	!	!	!	!	!
4d\	.	.	.	.	.	4ff\	.
!LO:LB:g=original	!	!	!	!	!	!	!
4e\	.	.	.	.	.	4gg\	.
4d\	.	.	.	.	.	4ff\	.
4c\	.	1r	.	.	.	4ee\	.
4B\	.	.	.	.	.	4dd\	.
4A\	.	.	.	.	.	4cc\	.
4G\	.	.	.	.	.	4b\	.
=29-	=29-	=29-	=29-	=29-	=29-	=29-	=29-
2.F/	.	2r	.	2r	.	4a/	.
.	.	.	.	.	.	4g/	.
.	.	2f\	in	2a\	in	4f/	.
4E/	.	.	.	.	.	4g/	.
!	!	!LO:SIC:v:t=custos e	!	!	!	!	!
2D/	.	2f\	ter-	2f\	ter-	4a/	.
!	!	!LO:LB:g=original	!	!	!	!	!
.	.	.	.	.	.	4b/	.
2C/	-nu(n)t	2e\	-ra	2g\	-ra	2.cc\	.
=30-	=30-	=30-	=30-	=30-	=30-	=30-	=30-
1F	an-	4f\	ca-	4a\	ca-	.	.
.	.	4g\	.	4b\	.	4b/	-nunt
.	.	4a\	.	4cc\	.	1a	an-
.	.	4g\	.	4b\	.	.	.
1F	-ge-	4f\	.	4a\	.	.	.
.	.	4e\	.	4g\	.	.	.
!	!	!	!	!	!	!LO:SIC:v:t=custos g	!
.	.	4d\	.	4f\	.	2a/	-ge-
!	!	!	!	!	!	!LO:LB:g=original	!
!	!	!	!	!LO:SIC:v:t=custos d	!	!	!
.	.	4c/	.	4e/	.	.	.
!	!	!	!	!LO:LB:g=original	!	!	!
=31-	=31-	=31-	=31-	=31-	=31-	=31-	=31-
1G	-li	2.B/	.	4d/	.	1g	-li
.	.	.	.	4c/	.	.	.
.	.	.	.	4d/	.	.	.
.	.	4c/	.	4e/	.	.	.
2r	.	2d\	.	2f\	.	2r	.
2A\	in	2c/	-nunt	2e/	-nunt	2cc\	in
=32-	=32-	=32-	=32-	=32-	=32-	=32-	=32-
2F/	ter-	2f\	an-	2a\	an-	2cc\	ter-
2G\	-ra	2d\	-ge-	2g\	-ge-	2b/	-ra
4A\	ca-	1c	-li	1e	-li	4cc\	ca-
4B\	.	.	.	.	.	4dd\	.
4c\	.	.	.	.	.	4ee\	.
4B\	.	.	.	.	.	4dd\	.
=33-	=33-	=33-	=33-	=33-	=33-	=33-	=33-
4A\	.	2r	.	2r	.	4cc\	.
4G\	.	.	.	.	.	4b/	.
4F/	.	2f\	in	2a\	in	2.a/	.
4E/	.	.	.	.	.	.	.
2D/	.	2f\	ter-	2f\	ter-	.	.
.	.	.	.	.	.	4b/	.
!	!	!LO:SIC:v:t=custos f	!	!	!	!	!
2C/	-nu(n)t	2e\	-ra	2g\	-ra	2.cc\	.
!	!	!LO:LB:g=original	!	!	!	!	!
=34-	=34-	=34-	=34-	=34-	=34-	=34-	=34-
0F	an-	4f\	ca-	4a\	ca-	.	.
.	.	4g\	.	4b\	.	4b/	-nunt
.	.	4a\	.	4cc\	.	1a	an-
.	.	4g\	.	4b\	.	.	.
.	.	4f\	.	4a\	.	.	.
.	.	4e\	.	4g\	.	.	.
.	.	4d\	.	4f\	.	2a/	-ge-
.	.	4c/	.	4e\	.	.	.
=35-	=35-	=35-	=35-	=35-	=35-	=35-	=35-
!	!	!	!	!LO:SIC:v:t=custos g	!	!	!
0G	-ge-	2.B/	.	1d	.	2g/	-li
!	!	!	!	!LO:LB:g=original	!	!LO:SIC:v:t=custos b	!
.	.	.	.	.	.	1b	ca-
!	!	!	!	!	!	!LO:LB:g=original	!
.	.	4c/	.	.	.	.	.
.	.	2d\	.	1g	-nu(n)t	.	.
.	.	1e\	-nu(n)t	.	.	2b/	-nunt
=36-	=36-	=36-	=36-	=36-	=36-	=36-	=36-
0A	-li	.	.	2.f\	an-	1.a	an-
.	.	1d	an-	.	.	.	.
.	.	.	.	8e/	.	.	.
.	.	.	.	8d/	.	.	.
.	.	.	.	2.e/	.	.	.
.	.	2c#X/	-ge-	.	.	2a/	-ge-
.	.	.	.	4e/	-ge-	.	.
=37-	=37-	=37-	=37-	=37-	=37-	=37-	=37-
*M3/1	*	*M3/1	*	*M3/1	*	*M3/1	*
*met(O|)	*	*met(O|)	*	*met(O|)	*	*met(O|)	*
!	!	!LO:SIC:v:t=custos A	!	!	!	!	!
1r	.	0d	-li	0.f	-li	0.a	-li
!	!	!LO:LB:g=original	!	!	!	!	!
!LO:SIC:v:t=custos D	!	!	!	!	!	!	!
1r	.	.	.	.	.	.	.
!LO:LB:g=original	!	!	!	!	!	!	!
1D	l(ae)-	1A	l(ae)-	.	.	.	.
=38-	=38-	=38-	=38-	=38-	=38-	=38-	=38-
1.D	-tan-	1.d	-tan-	1r	.	1r	.
.	.	.	.	1r	.	1r	.
2E/	.	4cny/	.	.	.	.	.
.	.	4B/	.	.	.	.	.
1F#X	.	1A	.	1d	l(ae)-	1a	l(ae)-
=39-	=39-	=39-	=39-	=39-	=39-	=39-	=39-
0G	-tur	0B	-tur	1.d	-tan-	1.dd	-tan-
.	.	.	.	2e/	.	4cc\	.
.	.	.	.	.	.	4b\	.
1r	.	1d	l(ae)-	1f#X	.	1a	.
=40-	=40-	=40-	=40-	=40-	=40-	=40-	=40-
1r	.	1.G	-tan-	0g	-tur	0b	-tur
1r	.	.	.	.	.	.	.
.	.	2A/	.	.	.	.	.
1G	l(ae)-	1B	.	1g	l(ae)-	1dd	l(ae)-
=41-	=41-	=41-	=41-	=41-	=41-	=41-	=41-
2C/	-tan-	0c	-tur	1.g	-tan-	1.ee	-tan-
2D/	.	.	.	.	.	.	.
2E/	.	.	.	.	.	.	.
2Fny/	.	.	.	4fny\	.	4dd\	.
.	.	.	.	4e\	.	4cc\	.
!	!	!	!	!LO:SIC:v:t=custos e	!	!	!
1G	.	1r	.	1d	.	1b	.
!	!	!	!	!LO:LB:g=original	!	!	!
=42-	=42-	=42-	=42-	=42-	=42-	=42-	=42-
*col	*	*	*	*	*	*	*
!	!	!	!	!	!	!LO:SIC:v:t=custos cc	!
0C	-tur	1G	l(ae)-	0e	-tur	0cc	-tur
!	!	!	!	!	!	!LO:LB:g=original	!
.	.	2c/	-tan-	.	.	.	.
.	.	2B/	.	.	.	.	.
0F	ar-	2A/	.	1.c	ar-	1cc	læ-
.	.	2G/	.	.	.	.	.
=43-	=43-	=43-	=43-	=43-	=43-	=43-	=43-
.	.	1A	.	.	.	0cc	-tan-
.	.	.	.	2d/	.	.	.
1.E	-chan-	1G	-tur	2e/	.	.	.
.	.	.	.	2f\	.	.	.
!	!	!LO:SIC:v:t=custos A	!	!	!	!	!
.	.	0B	ar-	0g	.	1b	-tur
!	!	!LO:LB:g=original	!	!	!	!	!
2E/	-ge-	.	.	.	.	.	.
*Xcol	*	*	*	*	*	*	*
=44-	=44-	=44-	=44-	=44-	=44-	=44-	=44-
0.D	-li	.	.	.	.	1dd	ar-
.	.	1.A	-chan-	1.f#X	-chan-	1.dd	-chan-
.	.	2A/	-ge-	2f#\	-ge-	2dd\	-ge-
=45-	=45-	=45-	=45-	=45-	=45-	=45-	=45-
*M2/1	*	*M2/1	*	*M2/1	*	*M2/1	*
*met(C|)	*	*met(C|)	*	*met(C|)	*	*met(C|)	*
2r	.	2G/	-li	1g	-li	1b	-li
2G\	No-	2B/	No-	.	.	.	.
2A\	-e	2c/	-e	2r	.	2r	.
2c\	no-	2A/	no-	2e/	No-	2cc\	No-
=46-	=46-	=46-	=46-	=46-	=46-	=46-	=46-
2G\	-e	2B/	-e	2d/	-e	2b/	-e
2G\	no-	4r	.	2B/	no-	2dd\	no-
.	.	4B/	no-	.	.	.	.
2A\	-e	2c/	-e	2e/	-e	2cc\	-e
2c\	no-	2A/	no-	2e/	no-	4r	.
.	.	.	.	.	.	4cc\	no-
=47-	=47-	=47-	=47-	=47-	=47-	=47-	=47-
1G	-e	1B	-e	2d/	-e	2b\	-e
.	.	.	.	2B/	no-	2dd\	no-
1r	.	1.c	ho-	1e	-e	1cc	-e
=48-	=48-	=48-	=48-	=48-	=48-	=48-	=48-
1.F	ho-	.	.	1.fny	ho-	1.a	ho-
.	.	2c/	-di-	.	.	.	.
.	.	1c	-e	.	.	.	.
!LO:SIC:v:t=custos A	!	!	!	!	!	!LO:SIC:v:t=custos cc	!
2F/	-di-	.	.	2f\	-di-	2a/	-di-
!LO:LB:g=original	!	!	!	!	!	!LO:LB:g=original	!
=49-	=49-	=49-	=49-	=49-	=49-	=49-	=49-
!	!	!	!	!LO:SIC:v:t=custos g	!	!	!
*	*	*	*	*	*	*lig	*
1A	-e	1r	.	1e	-e	1cc	-e
!	!	!	!	!LO:LB:g=original	!	!	!
2G\	ex-	2g\	ex-	1r	.	1dd	.
4B\	-ul	4g\	-ul-	.	.	.	.
4B\	ant	4d\	-tant	.	.	.	.
*	*	*	*	*	*	*Xlig	*
=50-	=50-	=50-	=50-	=50-	=50-	=50-	=50-
!	!	!LO:SIC:v:t=custos e	!	!	!	!	!
2c\	iu-	2e\	iu-	2g\	ex-	2gg\	ex-
!	!	!LO:LB:g=original	!	!	!	!	!
2G\	-ſti	2d\	-ſti	4b\	-ul-	4gg\	-ul-
.	.	.	.	4b\	-tant	4dd\	-tant
2r	.	2r	.	2cc\	iu-	2ee\	iu-
2G\	ex-	2g\	ex-	2b\	-ſti	2dd\	-ſti
=51-	=51-	=51-	=51-	=51-	=51-	=51-	=51-
4B\	-ul	4g\	-ul-	2r	.	2r	.
4B\	ta(n)t	4d\	-ant	.	.	.	.
*	*	*	*	*	*ij	*	*
2c\	iu-	2e\	iu-	2g\	ex-	2gg\	ex-
2G\	-ſti	2d\	-ſti	4b\	-ul-	4gg\	-ul-
.	.	.	.	4b\	-tant	4dd\	-tant
2C/	di-	2g\	di-	2cc\	iu-	2ee\	iu-
=52-	=52-	=52-	=52-	=52-	=52-	=52-	=52-
0F	-cen-	0f	-cen-	2a\	-ſti	2cc\	-ſti
*	*	*	*	*	*Xij	*	*
.	.	.	.	2a\	di-	2cc\	di-
.	.	.	.	1a	-cen-	1cc	-cen-
=53-	=53-	=53-	=53-	=53-	=53-	=53-	=53-
1C	-tes	1e	-tes	1g	-tes	1cc	-tes
*	*	*	*	*	*	*lig	*
1C	di-	1e	di-	1r	.	1g	Glo-
=54-	=54-	=54-	=54-	=54-	=54-	=54-	=54-
0F	-cen-	2.c/	-cen-	1r	.	1a	.
.	.	4B/	.	.	.	.	.
*	*	*	*	*lig	*	*Xlig	*
.	.	1A	.	1c	Glo-	1.cc	.
=55-	=55-	=55-	=55-	=55-	=55-	=55-	=55-
0C	-tes	2G/	-tes	1e	.	.	.
*	*	*	*ij	*	*	*	*
.	.	2g\	di-	.	.	2cc\	-ri-
!	!	!	!	!	!	!LO:SIC:v:t=custos cc	!
*	*	*	*	*Xlig	*	*	*
.	.	1e	-cen-	2.g\	.	1cc	-a
!	!	!	!	!	!	!LO:LB:g=original	!
.	.	.	.	4g\	-ri-	.	.
=56-	=56-	=56-	=56-	=56-	=56-	=56-	=56-
!	!	!LO:SIC:v:t=custos c	!	!	!	!	!
00G	Glo-	0.d	-tes	2g\	-a	1.b	in
!	!	!LO:LB:g=original	!	!	!	!	!
*	*	*	*Xij	*	*	*	*
!	!	!	!	!LO:SIC:v:t=custos a	!	!	!
.	.	.	.	1g	in	.	.
!	!	!	!	!LO:LB:g=original	!	!	!
.	.	.	.	2a\	ex-	2cc\	ex-
=57-	=57-	=57-	=57-	=57-	=57-	=57-	=57-
.	.	.	.	2b\	-cel-	2dd\	-cel-
.	.	.	.	2g\	-ſis	2b/	-ſis
*	*	*	*	*lig	*	*lig	*
.	.	1r	.	1b	De-	1dd	De-
=58-	=58-	=58-	=58-	=58-	=58-	=58-	=58-
*lig	*	*lig	*	*	*	*	*
1A	.	1c	Glo-	1a	.	1cc	.
*	*	*	*	*Xlig	*	*Xlig	*
1.c	.	1e	.	2.g\	-o	1cc	-o
.	.	.	.	4f\	.	.	.
*Xlig	*	*	*	*	*	*	*
=59-	=59-	=59-	=59-	=59-	=59-	=59-	=59-
*	*	*col	*	*	*	*	*
.	.	1.g	.	0e	.	2r	.
2c\	-ri-	.	.	.	.	2.cc\	in
1c	-a	.	.	.	.	.	.
.	.	.	.	.	.	4dd\	.
*	*	*Xlig	*	*	*	*	*
.	.	2g\	-ri-	.	.	2ee\	.
*	*	*Xcol	*	*	*	*	*
=60-	=60-	=60-	=60-	=60-	=60-	=60-	=60-
1.B	in	2g\	-a	1r	.	1dd	ex-
.	.	1G	in	.	.	.	.
*	*	*	*	*	*ij	*	*
.	.	.	.	0.d	Glo-	1dd	-cel-
2c\	ex-	2A/	ex-	.	.	.	.
=61-	=61-	=61-	=61-	=61-	=61-	=61-	=61-
2d\	-cel-	2B/	-cel-	.	.	2.dd\	-ſis
2G\	-ſis	2G/	-ſis	.	.	.	.
.	.	.	.	.	.	4cc\	.
*lig	*	*lig	*	*	*	*	*
1d	De-	1B	De-	.	.	4b/	.
.	.	.	.	.	.	4a/	.
.	.	.	.	.	.	2g/	.
=62-	=62-	=62-	=62-	=62-	=62-	=62-	=62-
*	*	*	*	*lig	*	*	*
1.c	.	1A	.	1e	-ri-	4a/	De-
.	.	.	.	.	.	4b/	.
.	.	.	.	.	.	4cc\	.
.	.	.	.	.	.	4dd\	.
.	.	0G	-o	1.g	.	2ee\	.
!	!	!	!	!	!	!LO:SIC:v:t=custos cc	!
*Xlig	*	*Xlig	*	*	*	*	*
4B\	.	.	.	.	.	4dd\	.
!LO:SIC:v:t=custos B	!	!	!	!	!	!	!
4A\	.	.	.	.	.	4cc\	.
!LO:LB:g=original	!	!	!	!	!	!	!
=63-	=63-	=63-	=63-	=63-	=63-	=63-	=63-
*	*	*	*	*	*	*lig	*
1B	.	.	.	.	.	1dd	.
.	.	.	.	2g\	-a	.	.
*	*	*	*	*	*	*col	*
1c	-o	1r	.	1g	in	2.ee\	.
*	*	*	*	*	*	*Xlig	*
.	.	.	.	.	.	4ff\	.
*	*	*	*	*	*	*Xcol	*
=64-	=64-	=64-	=64-	=64-	=64-	=64-	=64-
1.C	in	1r	.	1.e	ex-	4gg\	.
.	.	.	.	.	.	4ff\	.
.	.	.	.	.	.	4ee\	.
.	.	.	.	.	.	4dd\	.
.	.	0.G	Glo-	.	.	2ee\	.
2D/	ex-	.	.	2f\	.	4dd\	.
.	.	.	.	.	.	4cc\	.
=65-	=65-	=65-	=65-	=65-	=65-	=65-	=65-
2E/	-cel-	.	.	2g\	-cel-	4b/	.
.	.	.	.	.	.	4g/	.
2C/	-ſis	.	.	2e/	-ſis	2.cc\	.
*lig	*	*	*	*lig	*	*	*
1E	De-	.	.	1g	De-	.	.
.	.	.	.	.	.	8b/	.
!	!	!	!	!	!	!LO:SIC:v:t=custos b	!
.	.	.	.	.	.	8a/	.
!	!	!	!	!	!	!LO:LB:g=original	!
.	.	.	.	.	.	4b\	.
.	.	.	.	.	.	4cc\	.
=66-	=66-	=66-	=66-	=66-	=66-	=66-	=66-
*	*	*lig	*	*	*	*	*
1D	.	1A	.	1f	.	1dd	.
*Xlig	*	*	*	*Xlig	*	*	*
!	!	!	!	!LO:SIC:v:t=custos e	!	!	!
0.C	-o	1.c	.	1e	-o	0g	-o
!	!	!	!	!LO:LB:g=original	!	!	!
*	*	*Xlig	*	*	*Xij	*	*
=67-	=67-	=67-	=67-	=67-	=67-	=67-	=67-
.	.	.	.	2r	.	.	.
.	.	2c/	-ri-	2.e/	in	.	.
.	.	2c/	-a	.	.	2r	.
.	.	.	.	4f\	.	.	.
.	.	1e\	in	1g\	.	2cc\	in
=68-	=68-	=68-	=68-	=68-	=68-	=68-	=68-
0r	.	.	.	.	.	2ee\	ex-
.	.	2f\	ex-	2a\	ex-	2.dd\	-cel-
.	.	2g\	-cel-	2b\	-cel-	.	.
.	.	.	.	.	.	4b/	.
!	!	!LO:SIC:v:t=custos g	!	!	!	!	!
.	.	2e\	-ſis	2g\	-ſis	2ee\	.
!	!	!LO:LB:g=original	!	!	!	!	!
=69-	=69-	=69-	=69-	=69-	=69-	=69-	=69-
*	*	*lig	*	*lig	*	*	*
0r	.	1g	De-	1b	De-	2dd\	-ſis
.	.	.	.	.	.	2.ee\	De-
.	.	1f	.	1a	.	.	.
.	.	.	.	.	.	4dd\	.
.	.	.	.	.	.	4dd\	.
.	.	.	.	.	.	8cc\	.
.	.	.	.	.	.	8b\	.
*	*	*Xlig	*	*Xlig	*	*	*
=70-	=70-	=70-	=70-	=70-	=70-	=70-	=70-
2r	.	2.e\	.	1.g	-o	4cc\	.
.	.	.	.	.	.	4b\	.
1E	in	.	.	.	.	1b	.
.	.	4d\	.	.	.	.	.
*	*	*lig	*	*	*	*	*
.	.	1c	-o	.	.	.	.
!	!	!	!	!	!	!LO:SIC:v:t=custos b	!
2F/	ex-	.	.	4f\	.	2a/	.
!	!	!	!	!	!	!LO:LB:g=original	!
.	.	.	.	4e\	.	.	.
=71-	=71-	=71-	=71-	=71-	=71-	=71-	=71-
2G\	-cel-	1B	.	2d/	.	0b	-o
2E/	-ſis	.	.	2.g\	De-	.	.
*lig	*	*Xlig	*	*	*	*	*
1G	De-	2r	.	.	.	.	.
.	.	.	.	4f\	.	.	.
.	.	2B/	Al-	1e\	.	.	.
=72-	=72-	=72-	=72-	=72-	=72-	=72-	=72-
1F	.	2c/	-le-	.	.	1r	.
.	.	2A/	-lu-	2d/	.	.	.
*Xlig	*	*	*	*	*	*	*
2E/	-o	2G/	-ia	2e/	-o	2r	.
*	*	*	*ij	*	*	*	*
2E/	Al-	2c/	Al-	2g\	Al-	2ee\	Al-
=73-	=73-	=73-	=73-	=73-	=73-	=73-	=73-
2F/	-le-	2A/	-le-	2f\	-le-	2cc\	-le-
!	!	!	!	!LO:SIC:v:t=custos e	!	!	!
2D/	-lu-	2B/	-lu-	2f\	-lu-	2dd\	-lu-
!	!	!	!	!LO:LB:g=original	!	!	!
1C	-ia	1c	-ia	2e/	-ia	2g/	-ia
.	.	.	.	2d/	No-	2gg\	No-
=74-	=74-	=74-	=74-	=74-	=74-	=74-	=74-
1r	.	1r	.	2.a\	-e	2.ff\	-e
*	*	*	*	*	*ij	*	*
.	.	.	.	4g\	No-	4ee\	no-
2r	.	2r	.	2f\	-e	2dd\	-e
2A\	Al-	2e\	Al-	2e/	No-	2cc#X\	no-
=75-	=75-	=75-	=75-	=75-	=75-	=75-	=75-
2F/	-le-	2f\	-le-	1d	-e	1dd	-e
*	*	*	*	*	*Xij	*	*
2G\	-lu-	2d\	-lu-	.	.	.	.
1C	-ia	1c	-ia	2r	.	2r	.
*	*	*	*Xij	*	*	*	*
.	.	.	.	2g\	Al-	2ee\	Al-
=76-	=76-	=76-	=76-	=76-	=76-	=76-	=76-
2r	.	2r	.	2a\	-le-	2ccny\	-le-
!	!	!LO:SIC:v:t=custos e	!	!	!	!	!
2G\	No-	2d\	No-	2b\	-lu-	2dd\	-lu-
!	!	!LO:LB:g=original	!	!	!	!	!
2.c\	-e	2.e\	-e	1cc	-ia	1g	-ia
!LO:SIC:v:t=custos A	!	!	!	!	!	!	!
4B\	no-	4d\	no-	.	.	.	.
!LO:LB:g=original	!	!	!	!	!	!	!
=77-	=77-	=77-	=77-	=77-	=77-	=77-	=77-
2A\	-e	2c/	-e	2r	.	2r	.
2G\	no-	2B/	no-	2g\	No-	2gg\	No-
1D	-e	1A	-e	2.a\	-e	2.ff\	-e
!	!	!	!	!	!	!LO:SIC:v:t=custos dd	!
*	*	*	*	*	*ij	*	*
.	.	.	.	4g\	No-	4ee\	no-
!	!	!	!	!	!	!LO:LB:g=original	!
=78-	=78-	=78-	=78-	=78-	=78-	=78-	=78-
2r	.	2r	.	2f\	-e	2dd\	-e
2A\	Al-	2a\	Al-	2e/	No-	2cc#X\	no-
2B-X\	-le-	2f\	-le-	1d	-e	1dd	-e
*	*	*	*	*	*XIj	*	*
2G\	-lu-	2g\	-lu-	.	.	.	.
=79-	=79-	=79-	=79-	=79-	=79-	=79-	=79-
2F/	-ia	2c/	-ia	2r	.	2r	.
!	!	!	!	!LO:SIC:v:t=custos g	!	!	!
2C/	No-	2e\	No-	2g\	No-	2ccny\	No-
!	!	!	!	!LO:LB:g=original	!	!	!
2.G\	-e	2.d\	-e	2.g\	-e	2.b/	-e
*	*	*	*	*	*ij	*	*
4A\	no-	4c/	no-	4e/	No-	4a/	no-
=80-	=80-	=80-	=80-	=80-	=80-	=80-	=80-
2E/	-e	2B/	-e	2e/	-e	2g/	-e
2F/	no-	2A/	no-	2c/	No-	2a/	no-
2E/	-e	2G/	-e	2e/	-e	2b/	-e
*	*	*	*	*	*Xij	*	*
2E/	Al-	2c/	Al-	2g\	Al-	2ee\	Al-
=81-	=81-	=81-	=81-	=81-	=81-	=81-	=81-
2F/	-le-	2A/	-le-	2f\	-le-	2cc\	-le-
2D/	-lu-	2B/	-lu-	2f\	-lu-	2dd\	-lu-
!	!	!LO:SIC:v:t=custos a	!	!	!	!	!
1C	-ia	1c	-ia	2e/	-ia	2g/	-ia
!	!	!LO:LB:g=original	!	!	!	!	!
.	.	.	.	2e/	No-	2gg\	No-
=82-	=82-	=82-	=82-	=82-	=82-	=82-	=82-
1r	.	1r	.	2.a\	-e	2.ff\	-e
.	.	.	.	4g\	no-	4ee\	no-
2r	.	2r	.	2f\	-e	2dd\	-e
2A\	Al-	2a\	Al-	2e/	no-	2cc#X\	no-
=83-	=83-	=83-	=83-	=83-	=83-	=83-	=83-
2B-X\	-le-	2f\	-le-	1d	-e	1dd	-e
2G\	-lu-	2g\	-lu-	.	.	.	.
2F/	-ia	2c/	-ia	2r	.	2r	.
!	!	!	!	!	!	!LO:SIC:v:t=custos dd	!
2C/	No-	2c/	no-	2g\	No-	2ee\	No-
!	!	!	!	!	!	!LO:LB:g=original	!
=84-	=84-	=84-	=84-	=84-	=84-	=84-	=84-
2.G\	-e	2.B/	-e	2.g\	-e	2.dd\	-e
*	*ij	*	*	*	*	*	*
4A\	no-	4c/	no-	4e/	no-	4ccny\	no-
2G\	-e	2d\	-e	2g\	-e	2b/	-e
2E/	no-	2e\	no-	2g\	no-	2cc\	no-
=85-	=85-	=85-	=85-	=85-	=85-	=85-	=85-
1F	-e	2d\	-e	1f	-e	1a	-e
.	.	2.c/	no-	.	.	.	.
1G	no-	.	.	1d	no-	1g	no-
.	.	8B/	.	.	.	.	.
.	.	8A/	.	.	.	.	.
.	.	2B/	.	.	.	.	.
=86-	=86-	=86-	=86-	=86-	=86-	=86-	=86-
0C	-e	0c	-e.	0e	-e.	0g	-e.
*	*Xij	*	*	*	*	*	*
=-	=-	=-	=-	=-	=-	=-	=-
*-	*-	*-	*-	*-	*-	*-	*-
!!!system-decoration: [(s1,s2,s3,s4)]
!!!ENC: Mateusz Solarz
!!!END: 2022-07-01
!!!ENC: Julita Ruszuk
!!!END: 2022-07-04
